CSETWebApi/CSETWeb_Api/CSETWeb_ApiCore/Diagram/src/main/webapp/img/lib/mscae/CosmosDB.svg

<svg xmlns="http://www.w3.org/2000/svg" width="24" height="24"><path d="M8.147 19c1.73-1.22 3.716-2.86 5.86-5.004 2.2-2.2 3.82-4.167 5.008-5.853C17.654 5.678 15.024 4 12 4a8 8 0 0 0-8 8c0 3.02 1.675 5.65 4.147 7zm7.98-2.873a51.6 51.6 0 0 1-4.318 3.863L12 20a8 8 0 0 0 8-8c0-.065-.008-.127-.01-.2a52.08 52.08 0 0 1-3.863 4.318z" fill="#b8d432"/><path d="M23.417.583c-.342-.342-.84-.504-1.46-.504-1.703 0-4.348 1.225-7.312 3.328a8.68 8.68 0 0 1 1.133.433c2.682-1.82 4.904-2.76 6.18-2.76.247 0 .58.037.754.2.947.947-.966 6.4-7.997 13.422-5.4 5.388-10.453 8.208-12.67 8.208-.248 0-.58-.037-.754-.2-.626-.626.01-3.228 2.542-6.95a8.94 8.94 0 0 1-.425-1.118C.537 18.7-.7 22.14.585 23.416c.342.342.84.504 1.46.504 2.82 0 8.2-3.337 13.375-8.5C21.725 9.114 25.305 2.472 23.417.583zM4 0a4 4 0 0 1-4 4 4 4 0 0 1 4 4 4 4 0 0 1 4-4 4 4 0 0 1-4-4zm17 18a3 3 0 0 1-3 3 3 3 0 0 1 3 3 3 3 0 0 1 3-3 3 3 0 0 1-3-3z" fill="#0078d7"/><path d="M8.64 13.194h-.327a2.05 2.05 0 0 0 .061-.51c0-1.205-.98-2.184-2.184-2.184H4.146A7.97 7.97 0 0 0 4 12a7.97 7.97 0 0 0 2.258 5.563h2.38c1.205 0 2.184-.98 2.184-2.184a2.19 2.19 0 0 0-2.184-2.185zM14 14l.852-.876c-.373.188-.675.496-.852.876zm2.127 2.117l-2.83 2.632a1.85 1.85 0 0 0 1.304.54h.665a8 8 0 0 0 4.676-6.37h-.87l-2.943 3.198zm-3.467-4.893h3.926L19 8.16a8.03 8.03 0 0 0-3.531-3.358h-.45c-.817 0-1.47.653-1.47 1.47a1.28 1.28 0 0 0 .061.388h-.94c-1.286 0-2.307 1.02-2.307 2.286s1.02 2.287 2.287 2.287z" fill="#59b4d9"/></svg>

<?xml version="1.0" encoding="UTF-8" standalone="no"?>
<svg
   xmlns:dc="http://purl.org/dc/elements/1.1/"
   xmlns:cc="http://creativecommons.org/ns#"
   xmlns:rdf="http://www.w3.org/1999/02/22-rdf-syntax-ns#"
   xmlns:svg="http://www.w3.org/2000/svg"
   xmlns="http://www.w3.org/2000/svg"
   xmlns:sodipodi="http://sodipodi.sourceforge.net/DTD/sodipodi-0.dtd"
   xmlns:inkscape="http://www.inkscape.org/namespaces/inkscape"
   version="1.1"
   id="Layer_1"
   x="0px"
   y="0px"
   width="24"
   height="24"
   viewBox="0 0 24 24"
   enable-background="new 0 0 24 24"
   xml:space="preserve"
   inkscape:version="0.91 r13725"
   sodipodi:docname="CosmosDB-color.svg"><metadata
     id="metadata25"><rdf:RDF><cc:Work
         rdf:about=""><dc:format>image/svg+xml</dc:format><dc:type
           rdf:resource="http://purl.org/dc/dcmitype/StillImage" /><dc:title></dc:title></cc:Work></rdf:RDF></metadata><defs
     id="defs23" /><sodipodi:namedview
     pagecolor="#ffffff"
     bordercolor="#666666"
     borderopacity="1"
     objecttolerance="10"
     gridtolerance="10"
     guidetolerance="10"
     inkscape:pageopacity="0"
     inkscape:pageshadow="2"
     inkscape:window-width="1920"
     inkscape:window-height="1018"
     id="namedview21"
     showgrid="false"
     fit-margin-top="0"
     fit-margin-left="0"
     fit-margin-right="0"
     fit-margin-bottom="0"
     inkscape:zoom="21.591036"
     inkscape:cx="10.780481"
     inkscape:cy="9.023687"
     inkscape:window-x="-8"
     inkscape:window-y="-8"
     inkscape:window-maximized="1"
     inkscape:current-layer="Layer_1" /><path
     d="M 8.147,19.01 C 9.877,17.791 11.863,16.149 14.006,14.006 16.207,11.805 17.825,9.839 19.014,8.153 17.654,5.678 15.024,4 12,4 7.582,4 4,7.582 4,12 4,15.021 5.675,17.649 8.147,19.01 Z"
     id="path3"
     inkscape:connector-curvature="0"
     style="fill:#b8d432" /><path
     d="M 16.127,16.127 C 14.697,17.556 13.239,18.852 11.809,19.99 11.873,19.992 11.936,20 12,20 16.418,20 20,16.418 20,12 20,11.935 19.992,11.873 19.99,11.809 18.82,13.276 17.513,14.741 16.127,16.127 Z"
     id="path5"
     inkscape:connector-curvature="0"
     style="fill:#b8d432" /><path
     d="M 23.417,0.583 C 23.075,0.241 22.578,0.079 21.956,0.079 20.253,0.079 17.608,1.304 14.644,3.407 15.033,3.528 15.412,3.669 15.777,3.84 18.459,2.019 20.681,1.079 21.957,1.079 22.204,1.079 22.536,1.116 22.711,1.29 23.658,2.237 21.745,7.681 14.714,14.712 9.325,20.101 4.262,22.92 2.046,22.92 1.798,22.92 1.467,22.883 1.292,22.709 0.666,22.083 1.303,19.481 3.834,15.76 3.667,15.4 3.528,15.026 3.409,14.642 0.537,18.689 -0.691,22.139 0.585,23.416 0.927,23.758 1.424,23.92 2.046,23.92 4.865,23.92 10.256,20.583 15.421,15.419 21.725,9.114 25.305,2.472 23.417,0.583 Z"
     id="path7"
     inkscape:connector-curvature="0"
     style="fill:#0078d7" /><path
     d="M 4,0 C 4,2.209 2.209,4 0,4 2.209,4 4,5.791 4,8 4,5.791 5.791,4 8,4 5.791,4 4,2.209 4,0 L 4,0 Z"
     id="path9"
     inkscape:connector-curvature="0"
     style="fill:#0078d7" /><path
     d="M 21,18 C 21,19.657 19.657,21 18,21 19.657,21 21,22.343 21,24 21,22.343 22.343,21 24,21 22.343,21 21,19.657 21,18 L 21,18 Z"
     id="path11"
     inkscape:connector-curvature="0"
     style="fill:#0078d7" /><path
     d="M 8.639,13.194 8.312,13.194 C 8.353,13.031 8.373,12.867 8.373,12.684 8.373,11.479 7.393,10.5 6.189,10.5 L 4.146,10.5 C 4.053,10.986 4,11.487 4,12 4,14.164 4.863,16.123 6.258,17.563 L 8.639,17.563 C 9.844,17.563 10.823,16.583 10.823,15.379 10.823,14.174 9.843,13.194 8.639,13.194 Z"
     id="path13"
     inkscape:connector-curvature="0"
     style="fill:#59b4d9" /><path
     d="M 14.001,14.011 C 14.003,14.009 14.004,14.008 14.006,14.006 14.302,13.71 14.578,13.422 14.853,13.135 14.48,13.323 14.178,13.631 14.001,14.011 Z"
     id="path15"
     inkscape:connector-curvature="0"
     style="fill:#59b4d9" /><path
     d="M 16.127,16.127 C 15.191,17.063 14.242,17.942 13.296,18.759 13.632,19.092 14.093,19.299 14.6,19.299 L 15.265,19.299 C 17.784,18.17 19.611,15.78 19.941,12.929 L 19.07,12.929 C 18.147,14.017 17.159,15.094 16.127,16.127 Z"
     id="path17"
     inkscape:connector-curvature="0"
     style="fill:#59b4d9" /><path
     d="M 12.661,11.234 16.587,11.234 C 17.545,10.127 18.346,9.1 19.009,8.161 18.21,6.709 16.977,5.528 15.478,4.803 L 15.029,4.803 C 14.212,4.803 13.559,5.456 13.559,6.273 13.559,6.395 13.579,6.538 13.62,6.661 L 12.681,6.661 C 11.395,6.661 10.374,7.682 10.374,8.947 10.374,10.212 11.395,11.234 12.661,11.234 Z"
     id="path19"
     inkscape:connector-curvature="0"
     style="fill:#59b4d9" /></svg>
